assets/svg/wallet_walletblue.svg

<svg width="36" height="36" viewBox="0 0 36 36" fill="none" xmlns="http://www.w3.org/2000/svg">
<g clip-path="url(#clip0_19127_50556)">
<rect width="36" height="36" rx="10" fill="#1D46EB"/>
<path d="M11.3125 11.6659H24.6459C24.8016 11.6659 24.9572 11.6757 25.1117 11.6955C25.0593 11.3279 24.9331 10.9747 24.7405 10.6572C24.548 10.3398 24.2931 10.0646 23.9913 9.84824C23.6896 9.63192 23.3471 9.47895 22.9846 9.39856C22.6221 9.31817 22.2471 9.31202 21.8821 9.38049L10.9167 11.2526H10.9042C10.2159 11.3842 9.60382 11.7736 9.19296 12.3413C9.81196 11.901 10.5529 11.6649 11.3125 11.6659ZM24.6459 12.6659H11.3125C10.6055 12.6667 9.9277 12.9479 9.42778 13.4478C8.92785 13.9477 8.64665 14.6256 8.64587 15.3326V23.3326C8.64665 24.0396 8.92785 24.7174 9.42778 25.2173C9.9277 25.7173 10.6055 25.9985 11.3125 25.9992H24.6459C25.3529 25.9985 26.0307 25.7173 26.5306 25.2173C27.0306 24.7174 27.3118 24.0396 27.3125 23.3326V15.3326C27.3118 14.6256 27.0306 13.9477 26.5306 13.4478C26.0307 12.9479 25.3529 12.6667 24.6459 12.6659ZM22.6667 20.6659C22.403 20.6659 22.1452 20.5877 21.9259 20.4412C21.7067 20.2947 21.5358 20.0865 21.4349 19.8428C21.334 19.5992 21.3075 19.3311 21.359 19.0724C21.4104 18.8138 21.5374 18.5762 21.7239 18.3898C21.9104 18.2033 22.1479 18.0763 22.4066 18.0249C22.6652 17.9734 22.9333 17.9998 23.177 18.1007C23.4206 18.2016 23.6288 18.3725 23.7753 18.5918C23.9218 18.8111 24 19.0689 24 19.3326C24 19.6862 23.8596 20.0253 23.6095 20.2754C23.3595 20.5254 23.0203 20.6659 22.6667 20.6659Z" fill="white"/>
<path d="M8.66663 18.1458V14C8.66663 13.0971 9.16663 11.5833 10.902 11.2554C12.375 10.9792 13.8333 10.9792 13.8333 10.9792C13.8333 10.9792 14.7916 11.6458 14 11.6458C13.2083 11.6458 13.2291 12.6667 14 12.6667C14.7708 12.6667 14 13.6458 14 13.6458L10.8958 17.1667L8.66663 18.1458Z" fill="white"/>
</g>
<defs>
<clipPath id="clip0_19127_50556">
<rect width="36" height="36" fill="white"/>
</clipPath>
</defs>
</svg>

<svg xmlns="http://www.w3.org/2000/svg" width="36" height="36" fill="none"><g clip-path="url(#a)"><rect width="36" height="36" fill="#1D46EB" rx="10"/><path fill="#fff" d="M11.313 11.666h13.333q.234 0 .466.03a2.75 2.75 0 0 0-3.23-2.316l-10.965 1.873h-.013a2.75 2.75 0 0 0-1.711 1.088 3.65 3.65 0 0 1 2.12-.675m13.333 1H11.313a2.67 2.67 0 0 0-2.667 2.667v8a2.67 2.67 0 0 0 2.666 2.666h13.334a2.67 2.67 0 0 0 2.666-2.666v-8a2.67 2.67 0 0 0-2.666-2.667m-1.98 8a1.334 1.334 0 1 1 0-2.667 1.334 1.334 0 0 1 0 2.667"/><path fill="#fff" d="M8.667 18.146V14c0-.903.5-2.417 2.235-2.745 1.473-.276 2.931-.276 2.931-.276s.959.667.167.667-.77 1.02 0 1.02 0 .98 0 .98l-3.104 3.52z"/></g><defs><clipPath id="a"><path fill="#fff" d="M0 0h36v36H0z"/></clipPath></defs></svg>
